data/icons/tags.svg

<svg fill="#fff" viewBox="0 0 512 512" xmlns="http://www.w3.org/2000/svg"><path d="m472.8 168.4c52.3 53 52.3 138.2 0 191.2l-112 113.3c-9.3 9.4-24.5 9.5-33.9.2-9.5-9.3-9.5-24.5-.2-34l111.9-113.2c33.9-34.3 33.9-89.5 0-123.8l-127.7-129.23c-9.4-9.43-9.3-24.62.2-33.94 9.4-9.32 24.6-9.23 33 .2zm-328.8-25.3c0 18.6-14.3 32-32 32-17.67 0-32-13.4-32-32 0-16.8 14.33-32 32-32 17.7 0 32 15.2 32 32zm266.7 75.6c25 25 25 65.6 0 90.6l-133.4 133.4c-25 25-65.6 25-90.6 0l-167.95-168c-12.007-12-18.75-28.2-18.75-45.2v-149.5c0-26.51 21.49-48 48-48h149.5c17 0 33.2 6.74 45.2 18.75zm-362.7-139.6v150.4c0 4.2 1.69 8.3 4.69 11.3l168.01 168c6.2 6.3 16.4 6.3 22.6 0l133.5-133.5c6.3-6.2 6.3-16.4 0-22.6l-168-168.01c-3-3-7.1-5.59-11.3-5.59z"/></svg>

<svg fill="#FFFFFF" xmlns="http://www.w3.org/2000/svg" viewBox="0 0 512 512"><!--! Font Awesome Pro 6.1.2 by @fontawesome - https://fontawesome.com License - https://fontawesome.com/license (Commercial License) Copyright 2022 Fonticons, Inc. --><path d="M472.8 168.4C525.1 221.4 525.1 306.6 472.8 359.6L360.8 472.9C351.5 482.3 336.3 482.4 326.9 473.1C317.4 463.8 317.4 448.6 326.7 439.1L438.6 325.9C472.5 291.6 472.5 236.4 438.6 202.1L310.9 72.87C301.5 63.44 301.6 48.25 311.1 38.93C320.5 29.61 335.7 29.7 344.1 39.13L472.8 168.4zM144 143.1C144 161.7 129.7 175.1 112 175.1C94.33 175.1 80 161.7 80 143.1C80 126.3 94.33 111.1 112 111.1C129.7 111.1 144 126.3 144 143.1zM410.7 218.7C435.7 243.7 435.7 284.3 410.7 309.3L277.3 442.7C252.3 467.7 211.7 467.7 186.7 442.7L18.75 274.7C6.743 262.7 0 246.5 0 229.5V80C0 53.49 21.49 32 48 32H197.5C214.5 32 230.7 38.74 242.7 50.75L410.7 218.7zM48 79.1V229.5C48 233.7 49.69 237.8 52.69 240.8L220.7 408.8C226.9 415.1 237.1 415.1 243.3 408.8L376.8 275.3C383.1 269.1 383.1 258.9 376.8 252.7L208.8 84.69C205.8 81.69 201.7 79.1 197.5 79.1L48 79.1z"/></svg>
